packages/core/src/svgs/tokens/branded/WACME.svg

<svg width="24" height="24" viewBox="0 0 24 24" fill="none" xmlns="http://www.w3.org/2000/svg">
<path d="M13.7637 3.7647C13.7637 4.23272 13.5778 4.68159 13.2468 5.01254C12.9159 5.34349 12.4671 5.5294 11.9991 5.5294C11.531 5.5294 11.0822 5.34349 10.7511 5.01254C10.4202 4.68159 10.2344 4.23272 10.2344 3.7647C10.2344 3.29667 10.4202 2.84781 10.7511 2.51686C11.0822 2.18591 11.531 2 11.9991 2C12.4671 2 12.9159 2.18591 13.2468 2.51686C13.5778 2.84781 13.7637 3.29667 13.7637 3.7647Z" fill="#00A6FC"/>
<path d="M4.3521 9.64707C5.32672 9.64707 6.11681 8.85696 6.11681 7.88234C6.11681 6.90772 5.32672 6.11765 4.3521 6.11765C3.37748 6.11765 2.5874 6.90772 2.5874 7.88234C2.5874 8.85696 3.37748 9.64707 4.3521 9.64707Z" fill="#00A6FC"/>
<path d="M4.3521 17.8824C5.32672 17.8824 6.11681 17.0923 6.11681 16.1177C6.11681 15.143 5.32672 14.353 4.3521 14.353C3.37748 14.353 2.5874 15.143 2.5874 16.1177C2.5874 17.0923 3.37748 17.8824 4.3521 17.8824Z" fill="#00A6FC"/>
<path d="M11.9991 22C12.9737 22 13.7637 21.21 13.7637 20.2353C13.7637 19.2607 12.9737 18.4706 11.9991 18.4706C11.0244 18.4706 10.2344 19.2607 10.2344 20.2353C10.2344 21.21 11.0244 22 11.9991 22Z" fill="#00A6FC"/>
<path d="M19.648 17.8824C20.6226 17.8824 21.4128 17.0923 21.4128 16.1177C21.4128 15.143 20.6226 14.353 19.648 14.353C18.6735 14.353 17.8833 15.143 17.8833 16.1177C17.8833 17.0923 18.6735 17.8824 19.648 17.8824Z" fill="#00A6FC"/>
<path d="M19.648 9.64707C20.6226 9.64707 21.4128 8.85696 21.4128 7.88234C21.4128 6.90772 20.6226 6.11765 19.648 6.11765C18.6735 6.11765 17.8833 6.90772 17.8833 7.88234C17.8833 8.85696 18.6735 9.64707 19.648 9.64707Z" fill="#00A6FC"/>
<path d="M11.9991 13.7647C12.9737 13.7647 13.7637 12.9747 13.7637 12C13.7637 11.0254 12.9737 10.2354 11.9991 10.2354C11.0244 10.2354 10.2344 11.0254 10.2344 12C10.2344 12.9747 11.0244 13.7647 11.9991 13.7647Z" fill="#00A6FC"/>
<path d="M14.9005 11.4881C14.8301 11.0952 14.6799 10.7208 14.4594 10.3881L17.3064 8.83519C17.377 9.25283 17.5005 9.48223 17.8711 9.87052L14.9005 11.4881ZM14.3181 13.8058C14.5593 13.4999 14.7417 13.141 14.8475 12.7529L17.8299 14.1117C17.4535 14.4646 17.3535 14.6998 17.3476 15.1823L14.3181 13.8058ZM11.4123 14.8822C11.8005 14.9612 12.2006 14.9612 12.5887 14.8822V18.1764C12.4043 18.0914 12.2036 18.0473 12.0006 18.0473C11.7975 18.0473 11.5968 18.0914 11.4123 18.1764V14.8822ZM9.16525 12.7822C9.27114 13.1705 9.45932 13.5234 9.69471 13.8294L7.00642 15.4469C6.97701 14.9881 6.80643 14.7764 6.40643 14.4352L9.16525 12.7822ZM9.09466 11.547L9.05348 11.6234L6.1123 9.85872C6.52407 9.42925 6.64172 9.21166 6.7123 8.84696L9.47112 10.4998C9.2791 10.8233 9.15124 11.1809 9.09466 11.5529V11.547ZM12.5887 9.11754C12.2006 9.03863 11.8005 9.03863 11.4123 9.11754V5.82343C11.7947 5.97637 12.0593 5.96461 12.5887 5.82343V9.11754Z" fill="#00A6FC"/>
</svg>

<svg xmlns="http://www.w3.org/2000/svg" width="24" height="24" fill="none" viewBox="0 0 24 24">
    <path fill="#00A6FC" d="M13.764 3.765a1.765 1.765 0 1 1-3.53 0 1.765 1.765 0 0 1 3.53 0M4.352 9.647a1.765 1.765 0 1 0 0-3.53 1.765 1.765 0 0 0 0 3.53m0 8.235a1.765 1.765 0 1 0 0-3.529 1.765 1.765 0 0 0 0 3.53M12 22a1.765 1.765 0 1 0 0-3.53A1.765 1.765 0 0 0 12 22m7.648-4.118a1.765 1.765 0 1 0 0-3.53 1.765 1.765 0 0 0 0 3.53m0-8.235a1.765 1.765 0 1 0 0-3.53 1.765 1.765 0 0 0 0 3.53M12 13.765a1.765 1.765 0 1 0 0-3.53 1.765 1.765 0 0 0 0 3.53m2.9-2.277a2.9 2.9 0 0 0-.44-1.1l2.846-1.553c.071.418.194.647.565 1.036zm-.582 2.318c.241-.306.424-.665.53-1.053l2.982 1.359c-.377.353-.476.588-.482 1.07zm-2.906 1.076a2.95 2.95 0 0 0 1.177 0v3.294a1.4 1.4 0 0 0-1.177 0zm-2.247-2.1c.106.389.294.741.53 1.047l-2.689 1.618c-.029-.459-.2-.67-.6-1.012zm-.07-1.235-.042.076-2.94-1.764c.411-.43.529-.647.6-1.012L9.47 10.5c-.192.323-.32.68-.376 1.053zm3.494-2.43a3 3 0 0 0-1.177 0V5.824c.383.153.647.142 1.177 0z"/>
</svg>
